aloe_vera/img/wrapper4.svg

<svg width="75" height="75" viewBox="0 0 75 75" fill="none" xmlns="http://www.w3.org/2000/svg">
<g clip-path="url(#clip0)">
<path d="M0.915867 9.33708C0.370375 9.5587 0.0104738 10.0852 0.00227093 10.6739C-0.140694 20.9349 5.40768 31.4106 14.2539 37.799C11.3253 41.6046 9.66981 46.3731 9.66981 51.1227C9.66981 64.8206 23.0084 74.999 37.501 74.999C42.3034 74.999 47.0498 73.9094 51.2275 71.8483C51.9529 71.4905 52.2508 70.6122 51.893 69.8865C51.535 69.1611 50.657 68.8628 49.9312 69.221C46.1545 71.0844 41.8562 72.0692 37.501 72.0692C24.003 72.0692 12.5994 62.4768 12.5994 51.1226C12.5994 46.7506 14.2231 42.3559 17.0732 38.9647H57.929C60.7789 42.3557 62.4026 46.7504 62.4026 51.1226C62.4026 54.6218 61.3152 58.1079 59.258 61.2045C58.8102 61.8784 58.9936 62.7876 59.6676 63.2351C60.3411 63.6828 61.2506 63.4995 61.6981 62.8257C64.0754 59.2471 65.3322 55.2001 65.3322 51.1226C65.3322 46.3722 63.6763 41.6031 60.7471 37.7974C69.5922 31.408 75.1398 20.933 74.997 10.6736C74.9888 10.0849 74.6289 9.55841 74.0835 9.33678C73.5379 9.1156 72.9129 9.24201 72.4966 9.65816L66.8586 15.2962C65.1519 17.0027 62.511 18.5359 59.6135 19.5022C58.9404 19.7266 58.2583 19.9627 57.5976 20.2175C58.3957 13.759 58.0241 7.20711 56.4998 1.11032C56.3407 0.474009 55.7781 0.0209461 55.1226 0.00161069C54.4668 -0.0237304 53.8782 0.400622 53.6815 1.02624L51.2479 8.76449C50.114 12.1574 47.8761 15.1254 44.9349 17.1544C42.3624 8.19058 38.9731 1.14445 38.8198 0.827465C38.5752 0.322548 38.0638 0.00146421 37.5028 0.00087829C37.5022 0.00087829 37.5019 0.00087829 37.5013 0.00087829C36.9409 0.00087829 36.4295 0.320791 36.1842 0.824829C36.0324 1.13668 32.6768 8.08072 30.1074 17.1821C27.1463 15.1523 24.8935 12.1728 23.7546 8.76419L21.3208 1.02668C21.1241 0.401062 20.5372 -0.0215332 19.8799 0.00205013C19.2243 0.021532 18.6616 0.474595 18.5026 1.11061C16.972 7.23055 16.6029 13.9538 17.4242 20.3175C16.7539 20.0057 16.0735 19.7322 15.386 19.5028C12.4882 18.5363 9.84734 17.0033 8.14085 15.2966L2.50283 9.6586C2.08639 9.24216 1.46107 9.11575 0.915867 9.33708ZM60.5401 22.2818C62.488 21.632 66.1681 20.13 68.9301 17.3681L71.8466 14.4514C70.7451 22.8562 65.6412 31.0095 58.1472 36.0354H53.0448C54.8834 32.1896 56.2313 28.0294 57.0601 23.6482C58.0681 23.1337 59.3641 22.6739 60.5401 22.2818ZM54.0309 9.67955C54.0336 9.67164 54.0361 9.66387 54.0386 9.65582L54.7105 7.5197C55.301 12.3407 55.1787 17.3358 54.3385 22.2336C54.2497 22.4869 53.4879 28.6162 50.0593 35.4732L49.7785 36.0354H38.9658V33.9715C38.9658 28.9357 41.2912 23.8606 45.0386 20.723C46.6322 19.3787 51.6671 16.7708 54.0309 9.67955ZM37.5012 5.05444C38.8128 8.13125 40.8526 13.3092 42.44 19.1114C38.4151 22.8463 36.0362 28.3291 36.0362 33.9715V36.0354H30.1732C30.1751 35.793 30.177 35.549 30.177 35.303C30.177 25.5353 33.6959 14.0099 37.5012 5.05444ZM20.2939 7.52658C20.2939 7.52658 20.9686 9.67179 20.9713 9.67955C22.9629 15.6545 26.7207 18.291 29.31 20.2008C28.451 23.6775 27.8552 26.9764 27.5333 30.0609C25.9622 27.0014 23.5749 24.2589 20.6814 22.2131C19.825 17.454 19.6996 12.4 20.2939 7.52658ZM6.06918 17.3681C8.83092 20.1299 12.5112 21.632 14.459 22.2818C24.5733 25.656 26.3643 35.5025 26.68 36.0354H16.8519C9.35766 31.0101 4.25371 22.8575 3.15262 14.4514L6.06918 17.3681Z" fill="white"/>
<path d="M56.1045 68.4076C56.9135 68.4076 57.5693 67.7518 57.5693 66.9427C57.5693 66.1337 56.9135 65.4779 56.1045 65.4779C55.2955 65.4779 54.6396 66.1337 54.6396 66.9427C54.6396 67.7518 55.2955 68.4076 56.1045 68.4076Z" fill="white"/>
</g>
<defs>
<clipPath id="clip0">
<rect width="75" height="75" fill="white"/>
</clipPath>
</defs>
</svg>

<svg width="75" height="75" fill="none" xmlns="http://www.w3.org/2000/svg"><g clip-path="url(#clip0)" fill="#fff"><path d="M.916 9.337a1.465 1.465 0 00-.914 1.337C-.14 20.934 5.408 31.41 14.254 37.799c-2.929 3.806-4.584 8.574-4.584 13.324 0 13.698 13.338 23.876 27.831 23.876 4.802 0 9.549-1.09 13.727-3.15a1.465 1.465 0 00-1.297-2.628c-3.776 1.863-8.075 2.848-12.43 2.848-13.498 0-24.902-9.592-24.902-20.946 0-4.372 1.624-8.767 4.474-12.158H57.93c2.85 3.39 4.474 7.785 4.474 12.158 0 3.499-1.088 6.985-3.145 10.082a1.464 1.464 0 102.44 1.62c2.377-3.578 3.634-7.625 3.634-11.702 0-4.75-1.656-9.52-4.585-13.326 8.845-6.389 14.393-16.864 14.25-27.123a1.465 1.465 0 00-2.5-1.016l-5.638 5.638c-1.707 1.707-4.348 3.24-7.245 4.206a46.51 46.51 0 00-2.016.716c.798-6.459.426-13.01-1.098-19.108A1.464 1.464 0 0055.123.002a1.458 1.458 0 00-1.441 1.024l-2.434 7.738a16.655 16.655 0 01-6.313 8.39C42.362 8.191 38.973 1.144 38.82.827a1.465 1.465 0 00-1.317-.826H37.5c-.56 0-1.072.32-1.317.824-.152.312-3.507 7.256-6.077 16.357a16.653 16.653 0 01-6.352-8.418L21.32 1.027a1.465 1.465 0 00-2.818.084c-1.531 6.12-1.9 12.843-1.079 19.206-.67-.311-1.35-.585-2.038-.814-2.898-.967-5.539-2.5-7.245-4.206L2.503 9.659a1.465 1.465 0 00-1.587-.322zM60.54 22.282c1.948-.65 5.628-2.152 8.39-4.914l2.917-2.917c-1.102 8.405-6.206 16.558-13.7 21.584h-5.102c1.838-3.845 3.186-8.006 4.015-12.387 1.008-.514 2.304-.974 3.48-1.366zM54.03 9.68a.889.889 0 00.009-.024l.672-2.136a50.85 50.85 0 01-.372 14.714c-.09.253-.851 6.382-4.28 13.24l-.28.561H38.965v-2.063c0-5.036 2.325-10.111 6.073-13.249 1.593-1.344 6.628-3.952 8.992-11.043zM37.502 5.054c1.312 3.077 3.352 8.255 4.939 14.057-4.025 3.735-6.404 9.218-6.404 14.86v2.064h-5.863c.002-.242.004-.486.004-.732 0-9.768 3.519-21.293 7.324-30.249zM20.294 7.527l.677 2.153c1.992 5.975 5.75 8.611 8.339 10.52-.859 3.477-1.455 6.776-1.777 9.86-1.57-3.059-3.958-5.801-6.852-7.847-.856-4.759-.981-9.813-.387-14.686zM6.069 17.368c2.762 2.762 6.442 4.264 8.39 4.914 10.114 3.374 11.905 13.22 12.221 13.753h-9.828C9.358 31.01 4.254 22.858 3.152 14.451l2.917 2.917z"/><path d="M56.105 68.408a1.465 1.465 0 100-2.93 1.465 1.465 0 000 2.93z"/></g><defs><clipPath id="clip0"><path fill="#fff" d="M0 0h75v75H0z"/></clipPath></defs></svg>
